rospo-dark/16x16/actions/debug-step-instruction.svg

<svg height="16" viewBox="0 0 16 16" width="16" xmlns="http://www.w3.org/2000/svg"><path d="m3.0097656 1c-2.24869997 0-1.9980468 2-1.9980468 2v12h13.9921872v-12c0-2-2-2-2-2h-1.998047v4h1.998047v8h-9.9941404v-8h2v-4zm2.9980469 0 2 3 1.9980465-3zm .4277344 5c-1.0655 0-1.5117188.3522562-1.5117188 1.2539062 0 0-.02445.5874338-.03125.7460938-.0462.36892-.175395.6777344-.578125.6777344h-.3046875v.6445312h.3046875c.58855 0 .609375.6442319.609375 1.2011724-.005.17393.0135781.368422.0175781.476562.0833001.71164.5369007 1 1.4941407 1v-.591797c-.44951 0-.6063919-.118313-.6699219-.408203-.0337-.11597-.0371813-.514418-.0507812-.705078 0-.4154601-.1220132-1.0347157-.7207032-1.2910158.47307-.20257.6421225-.6282862.6953125-1.0039062.0239-.10411.0185907-.2223044.0253907-.3027344 0-.86631.0104231-1.1054687.7207031-1.1054687zm1.0722656 0v1h .9980469v-1zm2.0703125 0v .5917969c.71028 0 .720703.2391287.720703 1.1054687.007.0804.001991.1986244.025391.3027344.0532.37563.224195.8013462.697265 1.0039062-.59869.25635-.722656.8755657-.722656 1.2910158-.0137.19066-.017181.589108-.050781.705078-.0635.28989-.220412.408203-.669922.408203v.591797c.95725 0 1.412894-.28836 1.496094-1 .004-.10814.022578-.302633.017578-.476562 0-.5569105.018902-1.2011724.607422-1.2011724h.304687v-.6445312h-.304687c-.40273 0-.529992-.3088144-.576172-.6777344-.007-.15866-.03125-.7460938-.03125-.7460938 0-.9016599-.448192-1.2539062-1.513672-1.2539062zm-2.0703125 2v4h .9980469v-4z" fill="#d3dae3"/></svg>

<?xml version="1.0" encoding="UTF-8" standalone="no"?>
<svg xmlns="http://www.w3.org/2000/svg" width="22" height="22" viewBox="0 0 22 22">
 <defs>
  <style type="text/css" id="current-color-scheme">
   .ColorScheme-Text { color:#d3dae3; } .ColorScheme-Highlight { color:#5294e2; }
  </style>
 </defs>
 <path style="fill:currentColor;opacity:1" class="ColorScheme-Text" transform="translate(3 3)" d="M 3.0097656 1 C 0.76106563 1 1.0117188 3 1.0117188 3 L 1.0117188 15 L 15.003906 15 L 15.003906 3 C 15.003906 1 13.003906 1 13.003906 1 L 11.005859 1 L 11.005859 5 L 13.003906 5 L 13.003906 13 L 3.0097656 13 L 3.0097656 5 L 5.0097656 5 L 5.0097656 1 L 3.0097656 1 z M 6.0078125 1 L 8.0078125 4 L 10.005859 1 L 6.0078125 1 z M 6.4355469 6 C 5.3700469 6 4.9238281 6.3522562 4.9238281 7.2539062 C 4.9238281 7.2539062 4.8993781 7.84134 4.8925781 8 C 4.8463781 8.36892 4.7171831 8.6777344 4.3144531 8.6777344 L 4.0097656 8.6777344 L 4.0097656 9.3222656 L 4.3144531 9.3222656 C 4.9030031 9.3222656 4.9238281 9.9664975 4.9238281 10.523438 C 4.9188281 10.697368 4.9374062 10.89186 4.9414062 11 C 5.0247063 11.71164 5.4783069 12 6.4355469 12 L 6.4355469 11.408203 C 5.9860369 11.408203 5.829155 11.28989 5.765625 11 C 5.731925 10.88403 5.7284437 10.485582 5.7148438 10.294922 C 5.7148438 9.8794619 5.5928306 9.2602063 4.9941406 9.0039062 C 5.4672106 8.8013362 5.6362631 8.37562 5.6894531 8 C 5.7133531 7.89589 5.7080438 7.7776956 5.7148438 7.6972656 C 5.7148438 6.8309556 5.7252669 6.5917969 6.4355469 6.5917969 L 6.4355469 6 z M 7.5078125 6 L 7.5078125 7 L 8.5058594 7 L 8.5058594 6 L 7.5078125 6 z M 9.578125 6 L 9.578125 6.5917969 C 10.288405 6.5917969 10.298828 6.8309256 10.298828 7.6972656 C 10.305828 7.7776656 10.300819 7.89589 10.324219 8 C 10.377419 8.37563 10.548414 8.8013462 11.021484 9.0039062 C 10.422794 9.2602562 10.298828 9.8794719 10.298828 10.294922 C 10.285128 10.485582 10.281647 10.88403 10.248047 11 C 10.184547 11.28989 10.027635 11.408203 9.578125 11.408203 L 9.578125 12 C 10.535375 12 10.991019 11.71164 11.074219 11 C 11.078219 10.89186 11.096797 10.697367 11.091797 10.523438 C 11.091797 9.9665275 11.110699 9.3222656 11.699219 9.3222656 L 12.003906 9.3222656 L 12.003906 8.6777344 L 11.699219 8.6777344 C 11.296489 8.6777344 11.169227 8.36892 11.123047 8 C 11.116047 7.84134 11.091797 7.2539062 11.091797 7.2539062 C 11.091797 6.3522463 10.643605 6 9.578125 6 z M 7.5078125 8 L 7.5078125 12 L 8.5058594 12 L 8.5058594 8 L 7.5078125 8 z"/>
</svg>
